!!!SOCIAL_FUNCTION:	songs received from animals
!!!PDT:	1918

Specific Region: Dakotas, Minnesota, Montana, Nebraska
!!!REG: Dakotas and Montana
!!!LING_GROUP: Siouan
!!!LANG: Tone
!!!OTL@ENG: Song of the Crow and Owl
!!!ONM: No. 50
**kern
*Imale
*clefF4
*k[f#c#]
*M3/4
*>[A,B,B]
*>norep[A,B]
*>A
*MM69
16e
16e
=1
4e
16e
(8d
16B)
8B
16d
16d
=2
4d
16d
8.d
8d
8d
=3||
*M2/4
2B
=4
2B
=5
4.B
*>B
=!|:
16d
16d
=6||
*M3/4
4d
16d
(8B
16F#)
4F#
=7||
*M2/4
16B
8.A
8B
8B
=8
16A
8.F#
8F#
8F#
=9||
*M3/4
[2E
8E]
16E
16E
=10
4E
16E
8D
16D
8.BB
16F#
=11||
*M2/4
8.E
16D
4E
=12||
*M3/4
16D
8.D
16D
8.D
8D
8D
=13||
*M2/4
2BB
=14
2BB
=15
4.BB
==:|!
*-
!!!CNT: Native American -- Sioux
!!!MRD: 1911/07//-1914///
!!!OCL: Frances Densmore
!!!YOR1: Teton Sioux Music, Bulletin 61,
!!!YOR2: Bureau of American Ethnology, Smithsonian Institution
!!!PPR: Government Printing Office
!!!PPP: Washington, D.C.
!!!PDT: 1918///
!!!ENC: Craig Stuart Sapp
!!!END: 2002/03/25/
!!!EEV: 2002/03/31/
!!!AGN: Song of Personal Dreams/Song Received from Animals
!!!MPN@@SIO: Shiya'ka
!!!MPN@ENG: Teal Duck
!!!TXO: Teton Sioux
!!!MLC: Standing Rock Reservation, South Dakota, United States of America
!!!ARL: 45.9/-100.7#
!!!catalog: Catalogue No. 473
!!!PPG: 186
!!!EFL: 50/245
!!!VTS: 2934027774
